X: 1
T: the Caisson Song
P: piffero primo a0701a
O: Edmund Gruber
%R: march
F: http://ancients.sudburymuster.org/mus/col/pdf/serviceF.pdf
Z: 2020 John Chambers <jc:trillian.mit.edu>
M: 2/4
L: 1/8
K: G
dB |\
d2 dB | d2 dB | d>e dB | d2 Bc |\
d c2 A | d c2 A | G4- | G2 :|\
dd |\
g2 g2 | d2 dd | e>f ge | d4 |
g g2 f | ee fg | f4- | f2 dd |\
g2 g2 | f4 | e>f ge | d2 Bc |\
d c2A | d c2 A | G4- | G2 |]
